svgs/sharp-regular/person-pinball.svg

<svg xmlns="http://www.w3.org/2000/svg" viewBox="0 0 640 512"><!--! Font Awesome Pro 6.6.0 by @fontawesome - https://fontawesome.com License - https://fontawesome.com/license (Commercial License) Copyright 2024 Fonticons, Inc. --><path d="M80 96A48 48 0 1 0 80 0a48 48 0 1 0 0 96zM24 128L0 128l0 24L0 274c0 15.6 6.5 30.4 17.9 41L112 402.5l0 85.5 0 24 48 0 0-24 0-96 0-10.5-7.7-7.1-32.3-30 0-88 11.2 19.5 6.9 12.1 13.9 0 40 0 0 88 0 112 0 24 48 0 0-24 0-88 352 0 0 88 0 24 48 0 0-24 0-112 0-147.2 0-20.8 0-28.7L640 24l0-24L616 0 504 0 480 0l0 24 0 48 0 4.5 1.6 4.2 46.2 118.8L256 248.4l0-8.4-24 0-66.1 0-57.1-99.9L101.9 128 88 128l-64 0zm48 48l0 123.8L50.6 279.9c-1.6-1.5-2.6-3.6-2.6-5.9l0-98 24 0zM592 352l-352 0 0-51.9 32.1-5.8c0 .6-.1 1.1-.1 1.7c0 13.3 10.7 24 24 24s24-10.7 24-24c0-3.5-.8-6.9-2.2-9.9L592 236.7 592 352zM48 386.7L0 342.1 0 488l0 24 48 0 0-24 0-101.3zM528 67.5L528 48l64 0 0 139.2-16.5 2.4L528 67.5z"/></svg>

<svg xmlns="http://www.w3.org/2000/svg" viewBox="0 0 640 512"><!--! Font Awesome Pro 6.5.2 by @fontawesome - https://fontawesome.com License - https://fontawesome.com/license (Commercial License) Copyright 2024 Fonticons, Inc. --><path d="M80 96A48 48 0 1 0 80 0a48 48 0 1 0 0 96zM24 128H0v24V274c0 15.6 6.5 30.4 17.9 41L112 402.5V488v24h48V488 392 381.5l-7.7-7.1-32.3-30v-88l11.2 19.5 6.9 12.1H152h40v88V488v24h48V488 400H592v88 24h48V488 376 228.8 208 179.3 24 0H616 504 480V24 72v4.5l1.6 4.2 46.2 118.8L256 248.4V240H232 165.9l-57.1-99.9L101.9 128H88 24zm48 48V299.8L50.6 279.9c-1.6-1.5-2.6-3.6-2.6-5.9V176H72zM592 352H240V300.1l32.1-5.8c0 .6-.1 1.1-.1 1.7c0 13.3 10.7 24 24 24s24-10.7 24-24c0-3.5-.8-6.9-2.2-9.9L592 236.7V352zM48 386.7L0 342.1 0 488l0 24 48 0 0-24 0-101.3zM528 67.5V48h64V187.2l-16.5 2.4L528 67.5z"/></svg>
